img/icons/navigation/home.svg

<svg fill="none" viewBox="0 0 16 16" xmlns="http://www.w3.org/2000/svg"><path d="m8.63 1.23c-0.179-0.146-0.402-0.226-0.633-0.226s-0.454 0.0798-0.633 0.226l-5 4.09c-0.115 0.0938-0.207 0.212-0.271 0.346s-0.0964 0.28-0.0964 0.428v8.41c0 0.133 0.0527 0.26 0.146 0.354 0.0938 0.0938 0.221 0.146 0.354 0.146h11c0.133 0 0.26-0.0526 0.354-0.146 0.0937-0.0938 0.146-0.221 0.146-0.354v-8.41c0-0.148-0.033-0.294-0.0964-0.428-0.0635-0.134-0.156-0.252-0.271-0.346l-5-4.09zm-5.63 4.86 5-4.09 5 4.09v7.91h-3v-5c0-0.265-0.105-0.52-0.293-0.707-0.188-0.188-0.442-0.293-0.707-0.293h-2c-0.265 0-0.52 0.105-0.707 0.293-0.188 0.188-0.293 0.442-0.293 0.707v5h-3v-7.91zm6 2.91v5h-2v-5h2z" fill="#000"/></svg>

<svg xmlns="http://www.w3.org/2000/svg" viewBox="0 0 16 16" fill="none">
  <path fill="#000"
    d="M8.633 1.226a1 1 0 0 0-1.266 0l-5 4.091A1 1 0 0 0 2 6.091v8.41a.5.5 0 0 0 .5.5h11a.5.5 0 0 0 .5-.5V6.09a1 1 0 0 0-.367-.774l-5-4.09ZM3 6.091l5-4.09 5 4.09V14h-3V9a1 1 0 0 0-1-1H7a1 1 0 0 0-1 1v5H3V6.09Zm6 2.91v5H7V9h2Z" />
</svg>
